X:180
T: EINS ZWEI DREI VIER FINKELSTEIN
N: K2371
O: Europa, Mitteleuropa, Deutschland, Siegerland
R: Kinder - Lied, Tanz -, Lauf - Spiel
M: 2/4
L: 1/8
K: F
 | ccAA | ccA2 |
ccdd | ccA2 |
ccdd | ccA2 |
c2d2 | c2z2

@@@ Tune index: 7517
